X:1
T:Collection of enharmonic modulations
T:Rimsky-Korsakov Harmonic Exercises, Enharmonic modulation (2) 
T:Realizations by S. Shchetnikov
T:"Practical Manual of Harmony" (1885)
%%score { ( 1 2 ) | ( 3 4 ) }
L:1/8
Q:1/2=90
M:7/1
K:C
V:1 treble nm="Piano" snm="Pno."
V:2 treble 
V:3 bass 
V:4 bass 
V:1
"^C -- C♯""^Exercise: compose enharmonic modulations.\n\nRealizations:\n\n\n" (G8 G8 G8- ^^F8 ^G8 ^G8 !breath!^G8) |] %1
"^C -- c♯" (G8 G8 G8- ^^F8 ^G8 ^G8 !breath!^G8) |]"^C -- D" (G8 _A8 _A8- ^G8 =A8 A8 !breath!A8) |] %3
"^C -- d" (G8 _A8 _A8- ^G8 =A8 A8 !breath!A8) |]"^C -- E♭" (c8 c8 B8- _c8 _B8 _B8 !breath!_B8) |] %5
"^C -- e♭" (c8 c8 B8- _c8 _B8 _B8 !breath!_B8) |][M:6/1]"^C -- E" (e8 e8- e8 e8 ^d8 !breath!e8) |] %7
"^C -- e" (e8 e8- e8 e8 ^d8 !breath!e8) |][M:7/1]"^C -- F" (c8 c8 _c8- B8 =c8 c8 !breath!c8) |] %9
"^C -- f" (c8 c8 _c8- B8 =c8 c8 !breath!c8) |]"^C -- F♯" (c8 c8 c8- ^B8 ^c8 ^c8 !breath!^c8) |] %11
"^C -- f♯" (c8 c8 c8- c8 ^c8 ^c8 !breath!^c8) |] %12
[M:8/1]"^C -- G" (E8 F8 G8 G8- G8 G8 ^F8 !breath!G8) |] %13
"^C -- g" (E8 F8 G8 G8- G8 G8 ^F8 !breath!G8) |] %14
[M:7/1]"^C -- A♭" (E8 E8 D8- =D8 _E8 _E8 !breath!_E8) |] %15
"^C -- g♯" (c8 B8 B8- B8 B8 ^A8 !breath!B8) |]"^C -- a" (c8 c8 c8- c8 c8 B8 !breath!c8) |] %17
"^C -- A" (G8 A8 A8- A8 A8 ^G8 !breath!A8) |]"^C -- B♭" (G8 G8 ^F8- _G8 =F8 F8 !breath!F8) |] %19
"^C -- b♭" (G8 G8 ^F8- _G8 =F8 F8 !breath!F8) |]"^C -- B" (c8 c8 B8- B8 B8 ^A8 !breath!B8) |] %21
"^C -- b" (c8 c8 B8- B8 B8 ^A8 !breath!B8) |] %22
V:2
 (E8 E8 ^C8- ^C8 ^E8 ^D8 ^E8) |] (E8 E8 E8- E8 E8 ^D8 E8) |] (E8 F8 D8- D8 ^F8 E8 ^F8) |] %3
 (E8 F8 F8- F8 F8 E8 F8) |] (G8 ^F8 ^F8- ^F8 G8 =F8 G8) |] (G8 ^F8 ^F8- _G8 _G8 =F8 _G8) |] %6
[M:6/1] (c8 _B8- ^A8 =B8 B8 B8) |] (c8 _B8- ^A8 =B8 B8 B8) |] %8
[M:7/1] (G8 _A8 _A8- ^G8 =A8 =G8 A8) |] (G8 _A8 _A8- _A8 _A8 G8 _A8) |] %10
 (G8 G8 ^F8- ^F8 ^A8 ^G8 ^A8) |] (G8 G8 ^F8- ^F8 A8 ^G8 A8) |] %12
[M:8/1] (C8 C8 _E8 _D8- ^C8 =D8 D8 D8) |] (C8 C8 _E8 _D8- ^C8 =D8 D8 D8) |] %14
[M:7/1] (C8 B,8 B,8- =B,8 C8 _B,8 C8) |] (G8 G8 ^G8- ^G8 ^G8 ^^F8 ^G8) |] %16
 (G8 A8 A8- A8 A8 ^G8 A8) |] (E8 F8 _E8- ^D8 =E8 E8 E8) |] (E8 E8 ^C8- ^C8 D8 =C8 D8) |] %19
 (E8 E8 ^C8- _D8 _D8 =C8 _D8) |] (G8 A8 F8- ^E8 ^F8 ^F8 ^F8) |] (G8 A8 F8- ^E8 ^F8 ^F8 ^F8) |] %22
V:3
 (C8 B,8 ^C8- ^C8 ^C8 ^B,8 ^C8) |] (C8 B,8 ^C8- ^C8 ^C8 ^B,8 ^C8) |] (C8 C8 D8- D8 D8 ^C8 D8) |] %3
 (C8 C8 D8- D8 D8 ^C8 D8) |] (E8 E8 ^D8- _E8 _E8 =D8 _E8) |] (E8 E8 ^D8- _E8 _E8 =D8 _E8) |] %6
[M:6/1] (G8 G8- ^^F8 ^G8 =A8 ^G8) |] (G8 G8- G8 G8 =A8 G8) |][M:7/1] (E8 F8 F8- F8 F8 E8 F8) |] %9
 (E8 F8 F8- F8 F8 E8 F8) |] (E8 E8 ^F8- ^F8 ^F8 ^E8 ^F8) |] (E8 E8 ^F8- ^F8 ^F8 ^E8 ^F8) |] %12
[M:8/1] (G,8 _A,8 _B,8 G,8- G,8 =B,8 =A,8 B,8) |] (G,8 _A,8 _B,8 _B,8- _B,8 _B,8 =A,8 _B,8) |] %14
[M:7/1] (G,8 G,8 ^G,8- _A,8 _A,8 =G,8 _A,8) |] (E8 E8 D8- ^^C8 ^D8 ^D8 ^D8) |] %16
 (E8 F8 _E8- ^D8 =E8 E8 E8) |] (C8 C8 A,8- A,8 ^C8 B,8 ^C8) |] %18
 (C8 B,8 ^A,8- _B,8 _B,8 =A,8 _B,8) |] (C8 B,8 ^A,8- _B,8 _B,8 =A,8 _B,8) |] %20
 (E8 F8 D8- ^^C8 ^D8 ^C8 ^D8) |] (E8 F8 D8- D8 D8 ^C8 D8) |] %22
V:4
 (C,8 E,8 A,8- A,8 ^G,8 ^G,,8 ^C,8) |] (C,8 E,8 A,8- A,8 ^G,8 ^G,,8 ^C,8) |] %2
 (C8 F,8 _B,8- B,8 A,8 A,,8 D,8) |] (C8 F,8 _B,8- B,8 A,8 A,,8 D,8) |] %4
 (C8 A,8 A,8- =A,8 _B,8 _B,,8 _E,8) |] (C8 A,8 A,8- =A,8 _B,8 _B,,8 _E,8) |] %6
[M:6/1] (C8 C8- =C8 B,8 B,,8 E,8) |] (C8 C8- C8 B,8 B,,8 E,8) |] %8
[M:7/1] (C,8 F,8 _D,8- _D,8 C,8 C,8 F,8) |] (C,8 F,8 _D,8- _D,8 C,8 C,8 F,8) |] %10
 (C,8 E,8 D,8- D,8 ^C,8 ^C,8 ^F,8) |] (C,8 E,8 D,8- D,8 ^C,8 ^C,8 ^F,8) |] %12
[M:8/1] (C,8 F,8 _E,8 _E,8- _E,8 D,8 D,8 G,,8) |] (C,8 F,8 _E,8 _E,8- _E,8 D,8 D,8 G,,8) |] %14
[M:7/1] (C,8 E,8 E,8- _F,8 _E,8 _E,8 _A,,8) |] (C,8 E,8 E,8- E,8 ^D,8 ^D,8 ^G,,8) |] %16
 (C,8 F,8 F,8- F,8 E,8 E,8 A,,8) |] (C,8 F,8 F,8- F,8 E,8 E,8 A,,8) |] %18
 (C,8 E,8 E,8- E,8 F,8 F,8 _B,,8) |] (C,8 E,8 E,8- E,8 F,8 F,8 _B,,8) |] %20
 (C,8 F,8 G,8- G,8 ^F,8 ^F,,8 B,,8) |] (C,8 F,8 G,8- G,8 ^F,8 ^F,,8 B,,8) |] %22

